X:140
T:Many's A Wild Night
M:2/4
L:1/8
R:Polka
K:D
d/B/|:Ad dc/2B/2|AF FE/2F/2|GB BA/G/|FD D>F|!
Ad dc/2B/2|AF FE/2F/2|GB BA|1D2 D>F:|2D2 D2||!
|:dA/2d/2 fa|ge e/f/e/d/|cA/2c/2 eg|fd f/g/f/e/|!
dA/2d/2 fa|ge ed|cb ba|d2 d2:|
%%stretchlast

